X: 2
T: The Primrose Lasses
R: reel
M: 4/4
L: 1/8
K: Gmaj
g | edBA G2 GE | DEGA BAAg | edBA G2 GE | DEGA BGG2 |BdAB G2 GE | DEGA BAAg | edBA G2 GE | DEGA BGG ||z | d2 gd edgd | Bdgd BAA2 | d2 gd efge |dBAc BGG2 |d2 gd edgd | Bdgd BAA2 | dBde g2 ge | dBAc BGG||


Tune 789	Setting 13928

